icons/circle/48/qphotorec.svg

<svg version="1.1" viewBox="0 0 48 48" xmlns="http://www.w3.org/2000/svg">
 <defs>
  <linearGradient id="linearGradient1015" x1="1" x2="47" y1="24" y2="24" gradientUnits="userSpaceOnUse">
   <stop style="stop-color:#333" offset="0"/>
   <stop style="stop-color:#333;stop-opacity:0" offset="1"/>
  </linearGradient>
  <linearGradient id="linearGradient1017" x1="1" x2="47" gradientUnits="userSpaceOnUse">
   <stop style="stop-color:#323232" offset="0"/>
   <stop style="stop-color:#3c3c3c" offset="1"/>
  </linearGradient>
 </defs>
 <path d="m36.31 5c5.859 4.062 9.688 10.831 9.688 18.5 0 12.426-10.07 22.5-22.5 22.5-7.669 0-14.438-3.828-18.5-9.688 1.037 1.822 2.306 3.499 3.781 4.969 4.085 3.712 9.514 5.969 15.469 5.969 12.703 0 23-10.298 23-23 0-5.954-2.256-11.384-5.969-15.469-1.469-1.475-3.147-2.744-4.969-3.781zm4.969 3.781c3.854 4.113 6.219 9.637 6.219 15.719 0 12.703-10.297 23-23 23-6.081 0-11.606-2.364-15.719-6.219 4.16 4.144 9.883 6.719 16.219 6.719 12.703 0 23-10.298 23-23 0-6.335-2.575-12.06-6.719-16.219z" style="opacity:.05"/>
 <path d="m41.28 8.781c3.712 4.085 5.969 9.514 5.969 15.469 0 12.703-10.297 23-23 23-5.954 0-11.384-2.256-15.469-5.969 4.113 3.854 9.637 6.219 15.719 6.219 12.703 0 23-10.298 23-23 0-6.081-2.364-11.606-6.219-15.719z" style="opacity:.1"/>
 <path d="m31.25 2.375c8.615 3.154 14.75 11.417 14.75 21.13 0 12.426-10.07 22.5-22.5 22.5-9.708 0-17.971-6.135-21.12-14.75a23 23 0 0 0 44.875 -7 23 23 0 0 0 -16 -21.875z" style="opacity:.2"/>
 <g transform="matrix(0,-1,1,0,0,48)" style="fill:url(#linearGradient1015)">
  <path d="m24 1c12.703 0 23 10.297 23 23s-10.297 23-23 23-23-10.297-23-23 10.297-23 23-23z" style="fill:url(#linearGradient1017)"/>
 </g>
 <path d="m40 25a15 15 0 0 1 -15 15 15 15 0 0 1 -15 -15 15 15 0 0 1 15 -15 15 15 0 0 1 15 15z" style="opacity:.1"/>
 <path d="m15 12.018c-3.772 2.829-5.9943 7.267-6 11.982 0.00723 4.7133 2.2294 9.149 6 11.977 2.512-7.473 2.8173-15.297 0-23.959z" style="fill-rule:evenodd;fill:#ff5656"/>
 <path d="m21 9.3203c-2.1749 0.44406-4.2242 1.3653-6 2.6973v23.959c1.7738 1.3396 3.8233 2.2683 6 2.7188 2.2722-8.7905 3.0341-17.986 0-29.375z" style="fill-rule:evenodd;fill:#ffa656"/>
 <path d="m24 9c-1.0082 0.00567-2.0133 0.11299-3 0.32031v29.375c0.98723 0.20208 1.9923 0.30415 3 0.30469 1.0082-0.0057 2.0133-0.11299 3-0.32031 1.5259-9.8228 1.1398-19.633 0-29.375-0.98723-0.20208-1.9923-0.30415-3-0.30469z" style="fill-rule:evenodd;fill:#fffe69"/>
 <path d="m27 9.3047v29.375c2.1749-0.44406 4.2242-1.3653 6-2.6973 2.1826-7.17 3.1134-14.812 0-23.959-1.7738-1.3396-3.8233-2.2683-6-2.7188z" style="fill-rule:evenodd;fill:#71f286"/>
 <path d="m33 12.023v23.959a15 15 0 0 0 6 -11.982 15 15 0 0 0 -6 -11.977z" style="fill-rule:evenodd;fill:#77baff"/>
 <path d="m40.03 7.531c3.712 4.084 5.969 9.514 5.969 15.469 0 12.703-10.297 23-23 23-5.954 0-11.384-2.256-15.469-5.969 4.178 4.291 10.01 6.969 16.469 6.969 12.703 0 23-10.298 23-23 0-6.462-2.677-12.291-6.969-16.469z" style="opacity:.1"/>
 <path d="m32 25a7 7 0 0 1 -7 7 7 7 0 0 1 -7 -7 7 7 0 0 1 7 -7 7 7 0 0 1 7 7z" style="fill-rule:evenodd;fill:#1a1a1a;opacity:.1;paint-order:markers stroke fill"/>
 <path d="m31 24a7 7 0 0 1 -7 7 7 7 0 0 1 -7 -7 7 7 0 0 1 7 -7 7 7 0 0 1 7 7z" style="fill-rule:evenodd;fill:#1a1a1a;paint-order:markers stroke fill"/>
 <path d="m26.996 18.809l-0.99805 1.7305a4 4 0 0 1 1.4609 1.4629l1.7305-0.99805a6 6 0 0 0 -2.1934 -2.1953z" style="fill-rule:evenodd;fill:#fff"/>
</svg>

<svg viewBox="0 0 48 48" xmlns="http://www.w3.org/2000/svg">
  <defs>
    <linearGradient id="a" x1="1" x2="47" y1="24" y2="24" gradientUnits="userSpaceOnUse">
      <stop offset="0" stop-color="#333"/>
      <stop offset="1" stop-color="#333" stop-opacity="0"/>
    </linearGradient>
    <linearGradient id="b" x1="1" x2="47" gradientUnits="userSpaceOnUse">
      <stop offset="0" stop-color="#323232"/>
      <stop offset="1" stop-color="#3c3c3c"/>
    </linearGradient>
  </defs>
  <path d="M36.31 5c5.859 4.062 9.688 10.831 9.688 18.5 0 12.426-10.07 22.5-22.5 22.5-7.669 0-14.438-3.828-18.5-9.688a23.24 23.24 0 0 0 3.781 4.969 22.923 22.923 0 0 0 15.469 5.969c12.703 0 23-10.298 23-23a22.92 22.92 0 0 0-5.969-15.469A23.216 23.216 0 0 0 36.31 5zm4.969 3.781A22.911 22.911 0 0 1 47.498 24.5c0 12.703-10.297 23-23 23a22.909 22.909 0 0 1-15.719-6.219C12.939 45.425 18.662 48 24.998 48c12.703 0 23-10.298 23-23 0-6.335-2.575-12.06-6.719-16.219z" opacity=".05"/>
  <path d="M41.28 8.781a22.923 22.923 0 0 1 5.969 15.469c0 12.703-10.297 23-23 23A22.92 22.92 0 0 1 8.78 41.281 22.911 22.911 0 0 0 24.499 47.5c12.703 0 23-10.298 23-23A22.909 22.909 0 0 0 41.28 8.781z" opacity=".1"/>
  <path d="M31.25 2.375C39.865 5.529 46 13.792 46 23.505c0 12.426-10.07 22.5-22.5 22.5-9.708 0-17.971-6.135-21.12-14.75a23 23 0 0 0 44.875-7 23 23 0 0 0-16-21.875z" opacity=".2"/>
  <path d="M24 1c12.703 0 23 10.297 23 23S36.703 47 24 47 1 36.703 1 24 11.297 1 24 1z" fill="url(#b)" transform="rotate(-90 24 24)"/>
  <path d="M40 25a15 15 0 0 1-15 15 15 15 0 0 1-15-15 15 15 0 0 1 15-15 15 15 0 0 1 15 15z" opacity=".1"/>
  <path d="M15 12.018A15 15 0 0 0 9 24a15 15 0 0 0 6 11.977c2.512-7.473 2.817-15.297 0-23.959z" fill-rule="evenodd" fill="#ff5656"/>
  <path d="M21 9.32a15 15 0 0 0-6 2.698v23.959a15 15 0 0 0 6 2.718c2.272-8.79 3.034-17.986 0-29.375z" fill-rule="evenodd" fill="#ffa656"/>
  <path d="M24 9a15 15 0 0 0-3 .32v29.375A15 15 0 0 0 24 39a15.002 15.002 0 0 0 3-.32c1.526-9.823 1.14-19.633 0-29.375A15 15 0 0 0 24 9z" fill-rule="evenodd" fill="#fffe69"/>
  <path d="M27 9.305V38.68a15 15 0 0 0 6-2.698c2.183-7.17 3.113-14.812 0-23.959a15 15 0 0 0-6-2.718z" fill-rule="evenodd" fill="#71f286"/>
  <path d="M33 12.023v23.959A15 15 0 0 0 39 24a15 15 0 0 0-6-11.977z" fill-rule="evenodd" fill="#77baff"/>
  <path d="M40.03 7.531A22.922 22.922 0 0 1 45.999 23c0 12.703-10.297 23-23 23A22.92 22.92 0 0 1 7.53 40.031C11.708 44.322 17.54 47 23.999 47c12.703 0 23-10.298 23-23 0-6.462-2.677-12.291-6.969-16.469z" opacity=".1"/>
  <path d="M32 25a7 7 0 0 1-7 7 7 7 0 0 1-7-7 7 7 0 0 1 7-7 7 7 0 0 1 7 7z" fill-rule="evenodd" fill="#1a1a1a" opacity=".1" paint-order="markers stroke fill"/>
  <path d="M31 24a7 7 0 0 1-7 7 7 7 0 0 1-7-7 7 7 0 0 1 7-7 7 7 0 0 1 7 7z" fill-rule="evenodd" fill="#1a1a1a" paint-order="markers stroke fill"/>
  <path d="M26.996 18.809l-.998 1.73a4 4 0 0 1 1.46 1.463l1.731-.998a6 6 0 0 0-2.193-2.195z" fill-rule="evenodd" fill="#fff"/>
</svg>
